X: 5459
T: Bunch Of Keys, The
R: reel
M: 4/4
K: Gmajor
GF|:DGFA ~G2 GB|dG ~G2 e/f/g dB|DFFE ~F2 FG|AF ~F2 cAFA|
DGGA ~G2 GB|dGGF Gg ~g2|~f2 fd cAFG|1 AGGF ~G2 GF:|2 AGGF ~G2 Bc||
|:dggf ~g2 de|~g2 bg agfg|dffe fgfe|df ~f2 af ~f2|
dggf ~g2 de|~g2 bg ag ~g2|~f2 fd cAFG|1 AGGF ~G2 Bc:|2 AGGF G2||

